TGeo/prim_gtra_z.svg

<svg viewBox="-600 -400 1200 800" width="1200" height="800" xmlns="http://www.w3.org/2000/svg"><path style="fill:rgb(0,0,80)" d="M101,381l82,-121l42,-476Z"/><path style="fill:rgb(0,0,165)" d="M-236,271l337,110l-58,-538Z"/><path style="fill:rgb(0,0,132)" d="M43,-157l-240,-172l-39,600Z"/><path style="fill:rgb(0,0,128)" d="M50,-394l-247,65l240,172Z"/><path style="fill:rgb(0,0,133)" d="M43,-157l182,-59l-175,-178Z"/><path style="fill:rgb(0,0,184)" d="M225,-216l-182,59l58,538Z"/></svg>

<svg xmlns="http://www.w3.org/2000/svg" viewBox="-600 -400 1200 800" width="1200" height="800" style="background:rgb(255,255,255)"><path style="fill:rgb(0,0,80)" d="M101,381L183,260L225,-216z"/><path style="fill:rgb(0,0,165)" d="M-236,271L101,381L43,-157z"/><path style="fill:rgb(0,0,132)" d="M43,-157L-197,-329L-236,271z"/><path style="fill:rgb(0,0,128)" d="M50,-394L-197,-329L43,-157z"/><path style="fill:rgb(0,0,133)" d="M43,-157L225,-216L50,-394z"/><path style="fill:rgb(0,0,184)" d="M225,-216L43,-157L101,381z"/></svg>
